X: 33576
T: Rakes Of Kildare, The
R: jig
M: 6/8
K: Gmajor
D|:DGG GFG|ABc d2e|=fed dcA|AGE E2D|
DGG GFG|ABc d2e|=fed cA^F|1 G3 GFE:|2 G3 G2||
g|:gdg gdg|gdg _bag|=fdd d2c|d2c _BAG|
gdg gdg|gfg _bag|=fdd cA^F|G3 G2:|

